hosted_logos/release_technologies_inc.svg

<svg xmlns="http://www.w3.org/2000/svg" role="img" viewBox="262.03 247.03 674.44 134.44"><style>svg {isolation:isolate}</style><defs><clipPath id="_clipPath_fRJicQaLUjXWYG2PxmvBKh7lP9JC7kqe"><path d="M0 0h1200v628H0z"/></clipPath></defs><g fill="#29063E" clip-path="url(#_clipPath_fRJicQaLUjXWYG2PxmvBKh7lP9JC7kqe)"><path d="M470.374 318.896l14.498 26.563h-12.697l-12.876-25.032h-10.896v25.032h-11.705v-63.21h23.141c14.317 0 23.592 7.204 23.592 19.089 0 8.734-4.862 14.857-13.057 17.558zm-10.354-26.743h-11.617v18.55h11.616c7.563 0 11.705-3.513 11.705-9.275.001-5.673-4.231-9.275-11.704-9.275zm39.46 34.127c.72 6.663 5.853 10.895 12.336 10.895 5.314 0 9.364-2.341 11.076-5.943h11.706c-2.432 9.185-11.616 15.309-22.692 15.309-14.137 0-23.771-10.446-23.771-23.322 0-12.786 9.814-23.322 23.501-23.322 13.777 0 23.592 10.536 23.592 23.322 0 1.081 0 2.251-.091 3.061H499.48zm24.041-7.383c-.9-5.583-5.672-9.545-11.885-9.545-5.943 0-10.715 3.691-11.796 9.545h23.681zm18.447-36.648h11.256v46.552c0 4.772 2.251 7.023 6.483 7.023.9 0 2.16 0 3.151-.091v9.637c-1.441.089-3.692.089-5.493.089-10.624 0-15.397-5.312-15.397-16.477v-46.733zm34.505 44.031c.72 6.663 5.852 10.895 12.334 10.895 5.314 0 9.365-2.341 11.077-5.943h11.704c-2.431 9.185-11.615 15.309-22.691 15.309-14.137 0-23.772-10.446-23.772-23.322 0-12.786 9.815-23.322 23.502-23.322 13.777 0 23.59 10.536 23.59 23.322 0 1.081 0 2.251-.089 3.061h-35.655zm24.041-7.383c-.901-5.583-5.673-9.545-11.886-9.545-5.943 0-10.715 3.691-11.795 9.545h23.681zm46.243 21.069c-1.981 4.052-7.203 6.574-13.236 6.574-9.635 0-15.668-5.224-15.668-13.147 0-8.104 5.313-12.515 14.947-13.505l7.653-.811c4.683-.54 6.214-1.62 6.214-4.232 0-3.782-2.251-5.853-7.924-5.853-5.942 0-8.283 2.161-8.644 5.943h-11.345c.54-9.364 6.753-15.038 19.81-15.038 12.694 0 19.449 5.403 19.449 15.128v30.434h-11.256v-5.493zm-11.526-12.606c-4.051.36-6.122 2.252-6.122 5.223 0 2.882 2.521 4.863 6.933 4.863 6.303 0 10.624-3.962 10.624-9.005v-3.872c-.72 1.172-2.791 1.982-5.763 2.252l-5.672.539zm50.507 19.179c-11.975 0-18.909-5.763-20.349-14.948h11.436c.809 3.783 3.871 6.034 8.644 6.034 4.502 0 7.203-2.432 7.203-4.953 0-2.971-1.8-4.411-8.734-5.131-12.694-1.172-18.098-5.674-18.098-14.047 0-7.114 6.483-13.597 17.649-13.597 11.886 0 18.459 6.213 19.269 14.857h-11.257c-.359-3.422-2.971-5.854-7.833-5.854-4.592 0-6.573 2.161-6.573 4.502 0 2.973 1.981 4.592 8.914 5.222 12.787 1.262 17.919 5.404 17.919 13.868 0 7.924-7.385 14.047-18.19 14.047zm34.005-20.259c.72 6.663 5.853 10.895 12.335 10.895 5.314 0 9.364-2.341 11.076-5.943h11.705c-2.431 9.185-11.616 15.309-22.691 15.309-14.138 0-23.772-10.446-23.772-23.322 0-12.786 9.815-23.322 23.502-23.322 13.776 0 23.591 10.536 23.591 23.322 0 1.081 0 2.251-.091 3.061h-35.655zm24.041-7.383c-.901-5.583-5.672-9.545-11.885-9.545-5.943 0-10.716 3.691-11.796 9.545h23.681zm57.711-36.648h11.706v63.21h-11.706v-26.923h-26.923v26.923h-11.706v-63.21h11.706v25.932h26.923v-25.932zm52.851 57.178c-2.071 4.05-6.843 7.113-13.147 7.113-10.086 0-17.108-6.934-17.108-17.469v-28.093h11.255v26.382c0 5.854 3.422 9.365 8.555 9.365 6.482 0 10.445-5.222 10.445-14.406v-21.341h11.256v44.482h-11.256v-6.033zm20.93-57.178h11.165v24.221c2.611-4.05 8.194-6.572 14.587-6.572 12.246 0 22.961 9.094 22.961 23.321 0 14.228-10.715 23.322-22.961 23.322-6.393 0-11.976-2.522-14.587-6.573v5.492h-11.165v-63.211zm24.311 54.386c7.205 0 13.057-5.404 13.057-13.418s-5.853-13.417-13.057-13.417c-7.203 0-13.146 5.403-13.146 13.417s5.943 13.418 13.146 13.418zM346.732 362.72l49.004-84.537c4.684-8.081-1.171-18.183-10.541-18.183H287.19c-9.37 0-15.226 10.102-10.541 18.183l8.622 14.875 3.266 5.634c4.943 8.526 15.869 11.448 24.42 6.53l14.695-8.451c1.107-.636 1.485-2.048.847-3.151l-4.465-7.701c-1.776-3.064.439-6.897 3.986-6.897h37.181c3.55 0 5.769 3.839 3.99 6.907l-18.577 32.051c-1.779 3.068-6.218 3.068-7.996 0l-4.468-7.709c-.637-1.101-2.048-1.477-3.152-.844l-14.703 8.455c-8.543 4.913-11.469 15.811-6.532 24.329l3.266 5.634 8.622 14.875c4.691 8.089 16.393 8.089 21.081 0z"/></g></svg>

<svg width="1200" height="628" viewBox="0 0 1200 628" fill="none" xmlns="http://www.w3.org/2000/svg">
<rect width="1200" height="628" fill="white"/>
<path d="M470.374 318.896L484.872 345.459H472.175L459.299 320.427H448.403V345.459H436.698V282.249H459.839C474.156 282.249 483.431 289.453 483.431 301.338C483.431 310.072 478.569 316.195 470.374 318.896ZM460.02 292.153H448.403V310.703H460.019C467.582 310.703 471.724 307.19 471.724 301.428C471.725 295.755 467.493 292.153 460.02 292.153Z" fill="#29063E"/>
<path d="M499.48 326.28C500.2 332.943 505.333 337.175 511.816 337.175C517.13 337.175 521.18 334.834 522.892 331.232H534.598C532.166 340.417 522.982 346.541 511.906 346.541C497.769 346.541 488.135 336.095 488.135 323.219C488.135 310.433 497.949 299.897 511.636 299.897C525.413 299.897 535.228 310.433 535.228 323.219C535.228 324.3 535.228 325.47 535.137 326.28H499.48ZM523.521 318.897C522.621 313.314 517.849 309.352 511.636 309.352C505.693 309.352 500.921 313.043 499.84 318.897H523.521Z" fill="#29063E"/>
<path d="M541.968 282.249H553.224V328.801C553.224 333.573 555.475 335.824 559.707 335.824C560.607 335.824 561.867 335.824 562.858 335.733V345.37C561.417 345.459 559.166 345.459 557.365 345.459C546.741 345.459 541.968 340.147 541.968 328.982V282.249V282.249Z" fill="#29063E"/>
<path d="M576.473 326.28C577.193 332.943 582.325 337.175 588.807 337.175C594.121 337.175 598.172 334.834 599.884 331.232H611.588C609.157 340.417 599.973 346.541 588.897 346.541C574.76 346.541 565.125 336.095 565.125 323.219C565.125 310.433 574.94 299.897 588.627 299.897C602.404 299.897 612.217 310.433 612.217 323.219C612.217 324.3 612.217 325.47 612.128 326.28H576.473ZM600.514 318.897C599.613 313.314 594.841 309.352 588.628 309.352C582.685 309.352 577.913 313.043 576.833 318.897H600.514Z" fill="#29063E"/>
<path d="M646.757 339.966C644.776 344.018 639.554 346.54 633.521 346.54C623.886 346.54 617.853 341.316 617.853 333.393C617.853 325.289 623.166 320.878 632.8 319.888L640.453 319.077C645.136 318.537 646.667 317.457 646.667 314.845C646.667 311.063 644.416 308.992 638.743 308.992C632.801 308.992 630.46 311.153 630.099 314.935H618.754C619.294 305.571 625.507 299.897 638.564 299.897C651.258 299.897 658.013 305.3 658.013 315.025V345.459H646.757V339.966V339.966ZM635.231 327.36C631.18 327.72 629.109 329.612 629.109 332.583C629.109 335.465 631.63 337.446 636.042 337.446C642.345 337.446 646.666 333.484 646.666 328.441V324.569C645.946 325.741 643.875 326.551 640.903 326.821L635.231 327.36Z" fill="#29063E"/>
<path d="M685.738 346.539C673.763 346.539 666.829 340.776 665.389 331.591H676.825C677.634 335.374 680.696 337.625 685.469 337.625C689.971 337.625 692.672 335.193 692.672 332.672C692.672 329.701 690.872 328.261 683.938 327.541C671.244 326.369 665.84 321.867 665.84 313.494C665.84 306.38 672.323 299.897 683.489 299.897C695.375 299.897 701.948 306.11 702.758 314.754H691.501C691.142 311.332 688.53 308.9 683.668 308.9C679.076 308.9 677.095 311.061 677.095 313.402C677.095 316.375 679.076 317.994 686.009 318.624C698.796 319.886 703.928 324.028 703.928 332.492C703.928 340.416 696.543 346.539 685.738 346.539Z" fill="#29063E"/>
<path d="M719.743 326.28C720.463 332.943 725.596 337.175 732.078 337.175C737.392 337.175 741.442 334.834 743.154 331.232H754.859C752.428 340.417 743.243 346.541 732.168 346.541C718.03 346.541 708.396 336.095 708.396 323.219C708.396 310.433 718.211 299.897 731.898 299.897C745.674 299.897 755.489 310.433 755.489 323.219C755.489 324.3 755.489 325.47 755.398 326.28H719.743ZM743.784 318.897C742.883 313.314 738.112 309.352 731.899 309.352C725.956 309.352 721.183 313.043 720.103 318.897H743.784Z" fill="#29063E"/>
<path d="M801.495 282.249H813.201V345.459H801.495V318.536H774.572V345.459H762.866V282.249H774.572V308.181H801.495V282.249Z" fill="#29063E"/>
<path d="M854.346 339.427C852.275 343.477 847.503 346.54 841.199 346.54C831.113 346.54 824.091 339.606 824.091 329.071V300.978H835.346V327.36C835.346 333.214 838.768 336.725 843.901 336.725C850.383 336.725 854.346 331.503 854.346 322.319V300.978H865.602V345.46H854.346V339.427V339.427Z" fill="#29063E"/>
<path d="M875.276 282.249H886.441V306.47C889.052 302.42 894.635 299.898 901.028 299.898C913.274 299.898 923.989 308.992 923.989 323.219C923.989 337.447 913.274 346.541 901.028 346.541C894.635 346.541 889.052 344.019 886.441 339.968V345.46H875.276V282.249ZM899.587 336.635C906.792 336.635 912.644 331.231 912.644 323.217C912.644 315.203 906.791 309.8 899.587 309.8C892.384 309.8 886.441 315.203 886.441 323.217C886.441 331.231 892.384 336.635 899.587 336.635Z" fill="#29063E"/>
<path d="M346.732 362.72L395.736 278.183C400.42 270.102 394.565 260 385.195 260H287.19C277.82 260 271.964 270.102 276.649 278.183L285.271 293.058L288.537 298.692C293.48 307.218 304.406 310.14 312.957 305.222L327.652 296.771C328.759 296.135 329.137 294.723 328.499 293.62L324.034 285.919C322.258 282.855 324.473 279.022 328.02 279.022H365.201C368.751 279.022 370.97 282.861 369.191 285.929L350.614 317.98C348.835 321.048 344.396 321.048 342.618 317.98L338.15 310.271C337.513 309.17 336.102 308.794 334.998 309.427L320.295 317.882C311.752 322.795 308.826 333.693 313.763 342.211L317.029 347.845L325.651 362.72C330.342 370.809 342.044 370.809 346.732 362.72Z" fill="#29063E"/>
</svg>
